!!!COM: Palestrina, Giovanni Perluigi da
!!!OPR: Sacerdotes Domini
!!!OTL: Credo
**kern	**kern	**kern	**kern	**kern	**kern
*Ibass	*Ibarit	*Itenor	*Itenor	*Icalto	*Icant
!Bassus	!Baritone	!Tenor 2	!Tenor 1	!Altus	!Cantus
*clefF4	*clefF4	*clefGv2	*clefGv2	*clefG2	*clefG2
*k[]	*k[]	*k[]	*k[]	*k[]	*k[]
*G:mix	*G:mix	*G:mix	*G:mix	*G:mix	*G:mix
*M4/2	*M4/2	*M4/2	*M4/2	*M4/2	*M4/2
=1	=1	=1	=1	=1	=1
0r	0r	0r	0r	0r	1.dd
.	.	.	.	.	2dd
=2	=2	=2	=2	=2	=2
0r	0r	0r	0r	1.a	2cc
.	.	.	.	.	2a
.	.	.	.	.	1cc
.	.	.	.	2a	.
=3	=3	=3	=3	=3	=3
0r	0r	0r	0r	2g	0b
.	.	.	.	2e	.
.	.	.	.	1g	.
=4	=4	=4	=4	=4	=4
1.d	0r	0r	0r	0f	2a
.	.	.	.	.	2a
.	.	.	.	.	4a
.	.	.	.	.	4g
2d	.	.	.	.	4a
.	.	.	.	.	4b
=5	=5	=5	=5	=5	=5
2c	0r	0r	0r	2e	4cc
.	.	.	.	.	4b
2A	.	.	.	2a	4cc
.	.	.	.	.	4dd
1c	.	.	.	2a	2ee
.	.	.	.	2g	[2ee
=6	=6	=6	=6	=6	=6
1B	0r	0r	0r	4g	4ee]
.	.	.	.	4f	4dd
.	.	.	.	4e	1dd
.	.	.	.	4d	.
1A	.	.	.	1e	.
.	.	.	.	.	2cc#
=7	=7	=7	=7	=7	=7
0D	1d	0r	0r	2f	2dd
.	.	.	.	2a	2ff
.	2d	.	.	1a	2ff
.	2d	.	.	.	2ff
=8	=8	=8	=8	=8	=8
1A	2c	1r	0r	2a	2ee
.	2A	.	.	2.cc	2cc
2A	1c	1e	.	.	2.ee
.	.	.	.	4b	.
2A	.	.	.	2a	.
.	.	.	.	.	4ff
=9	=9	=9	=9	=9	=9
2G	0B	2e	0r	1b	2gg
2E	.	2e	.	.	4g
.	.	.	.	.	4a
1G	.	2d	.	1g	4b
.	.	.	.	.	4cc
.	.	2B	.	.	[2dd
=10	=10	=10	=10	=10	=10
2.D	1A	1d	1f	0a	4dd]
.	.	.	.	.	4ee
.	.	.	.	.	2.ff
4E	.	.	.	.	.
2.F	1r	[1c	2f	.	.
.	.	.	.	.	4ee
.	.	.	2f	.	[2cc
4G	.	.	.	.	.
=11	=11	=11	=11	=11	=11
1A	0r	1c]	2e	1a	4cc]
.	.	.	.	.	4dd
.	.	.	2c	.	1ee
2.E	.	1B	1e	1g	.
.	.	.	.	.	4dd
4F	.	.	.	.	4cc
=12	=12	=12	=12	=12	=12
2G	0r	0r	0d	2g	2b
2F#	.	.	.	2a	2a
1G	.	.	.	2g	4b
.	.	.	.	.	2cc
.	.	.	.	2d	.
.	.	.	.	.	4b
=13	=13	=13	=13	=13	=13
1C	2.c	0r	1c	2.e	1cc
.	4c	.	.	4e	.
1r	2c	.	1r	2e	1g
.	2B	.	.	2d	.
=14	=14	=14	=14	=14	=14
0r	2c	1r	0r	2e	2.a
.	1d	.	.	1f	.
.	.	.	.	.	4a
.	.	2.d	.	.	2a
.	2B	.	.	2d	2g#
.	.	4d	.	.	.
=15	=15	=15	=15	=15	=15
2r	1A	2d	0r	2.e	1a
2A	.	2c	.	.	.
.	.	.	.	4f#	.
2G	1r	2d	.	1g	2b
[2C	.	[2e	.	.	2cc
=16	=16	=16	=16	=16	=16
2C]	0r	2e]	2.e	2r	0g
2C	.	2c	.	2.G	.
.	.	.	4e	.	.
2.G	.	1B	2e	.	.
.	.	.	.	4A	.
.	.	.	2d	2B	.
4F	.	.	.	.	.
=17	=17	=17	=17	=17	=17
2E	0r	0r	2e	2c	1r
1D	.	.	1f	2.d	.
.	.	.	.	.	[1a
.	.	.	.	4e	.
2D	.	.	2d	4f	.
.	.	.	.	4d	.
=18	=18	=18	=18	=18	=18
2.A	1r	0r	1c	2e	1a]
.	.	.	.	2e	.
4G	.	.	.	.	.
4F	1d	.	1r	2f	1a
4E	.	.	.	.	.
2D	.	.	.	[2f	.
=19	=19	=19	=19	=19	=19
1A	2d	0r	0r	2f]	1a
.	2c	.	.	2e	.
1r	2d	.	.	2f	2b
.	[2e	.	.	2g	[2cc
=20	=20	=20	=20	=20	=20
0r	2e]	1e	0r	1c	4cc]
.	.	.	.	.	4b
.	2c	.	.	.	1a
.	1B	2e	.	2r	.
.	.	2d	.	[2d	2g#
=21	=21	=21	=21	=21	=21
1A	0r	2e	1r	2d]	1a
.	.	1f	.	2c	.
1B-	.	.	1f	2.d	2.f
.	.	2d	.	.	.
.	.	.	.	4e	4g
=22	=22	=22	=22	=22	=22
1A	0r	1c	2f	4f	4a
.	.	.	.	4g	4b
.	.	.	2e	1a	2cc
2D	.	1r	2f	.	2a
[2G	.	.	[2g	[2d	[2b
=23	=23	=23	=23	=23	=23
2G]	0r	0r	2g]	2d]	2b]
2C	.	.	2e	1g	2cc
1D	.	.	1d	.	2a
.	.	.	.	2f#	2a
=24	=24	=24	=24	=24	=24
2r	2r	0r	0r	1g	2b
1C	1c	.	.	.	1ee
.	.	.	.	2r	.
2C	2c	.	.	[2g	2ee
=25	=25	=25	=25	=25	=25
2C	2c	1r	0r	2g]	2ee
2C	2c	.	.	2g	2ee
2.G	2.B	2r	.	2g	2.dd
.	.	[2d	.	2g	.
4G	4B	.	.	.	4dd
=26	=26	=26	=26	=26	=26
1D	1A	2d]	0r	2.f#	1dd
.	.	2d	.	.	.
.	.	.	.	4f#	.
1G	1B	2d	.	2.g	1dd
.	.	2d	.	.	.
.	.	.	.	4f	.
=27	=27	=27	=27	=27	=27
1C	2G	2.c	2r	1e	1ee
.	2.A	.	1e	.	.
.	.	4c	.	.	.
1E	.	1B	.	1r	1ee
.	4G#	.	.	.	.
.	2G#	.	2e	.	.
=28	=28	=28	=28	=28	=28
2AA	1A	1c	2e	1r	1ee
2A	.	.	2e	.	.
2F	1r	2A	2.d	2r	1r
2G	.	[2B	.	2g	.
.	.	.	4d	.	.
=29	=29	=29	=29	=29	=29
1A	1r	4B]	1c	2e	0r
.	.	4A	.	.	.
.	.	2A	.	2f#	.
2G	2r	1B	1d	1g	.
[2G	2d	.	.	.	.
=30	=30	=30	=30	=30	=30
2G]	2d	0r	2B	1g	2r
2E	2e	.	2.c	.	2cc
2D	1f	.	.	2a	2dd
.	.	.	4B	.	.
2D	.	.	2B	2d	2dd
=31	=31	=31	=31	=31	=31
1C	1e	2r	1c	2g	1.ee
.	.	2e	.	2g	.
1r	2c	2e	1r	1a	.
.	2d	2f	.	.	2dd
=32	=32	=32	=32	=32	=32
0r	2e	1g	1r	2r	2b
.	2e	.	.	2g	2cc
.	1d	1f	2r	2.a	2.dd
.	.	.	2f	.	.
.	.	.	.	4g	4ee
=33	=33	=33	=33	=33	=33
0r	0r	2d	2f	4a	2ff
.	.	.	.	4b	.
.	.	2e	2g	1cc	1ee
.	.	2f	1a	.	.
.	.	2f	.	4b	2dd
.	.	.	.	4a	.
=34	=34	=34	=34	=34	=34
2r	0r	1e	1g	2b	2.ee
1c	.	.	.	4cc	.
.	.	.	.	4b	4dd
.	.	1r	2e	4a	2cc
.	.	.	.	4g	.
2d	.	.	2f	[2f	2b
=35	=35	=35	=35	=35	=35
2c	0r	0r	2g	2f]	1cc
2c	.	.	2g	2e	.
[1F	.	.	1f	2f	2r
.	.	.	.	[2f	[2a
=36	=36	=36	=36	=36	=36
1F]	2r	0r	0r	2f]	2a]
.	1c	.	.	2f	2a
1r	.	.	.	2.e	[1g
.	2c	.	.	.	.
.	.	.	.	8d	.
.	.	.	.	8c	.
=37	=37	=37	=37	=37	=37
0r	2B	1r	0r	2d	2g]
.	2c	.	.	2e	2a
.	2.d	2r	.	2.f	4b
.	.	.	.	.	4a
.	.	[2d	.	.	[2a
.	4c	.	.	4e	.
=38	=38	=38	=38	=38	=38
1r	1B	2d]	0r	4d	2a]
.	.	.	.	4c	.
.	.	2d	.	4d	2g#
.	.	.	.	4e	.
1F	1A	2c	.	1f	2.a
.	.	2d	.	.	.
.	.	.	.	.	4b
=39	=39	=39	=39	=39	=39
2C	0r	2.e	2r	0g	4cc
.	.	.	.	.	4dd
2.C	.	.	1e	.	4ee
.	.	4d	.	.	4ff
.	.	1c	.	.	1gg
4D	.	.	.	.	.
4E	.	.	2e	.	.
4F	.	.	.	.	.
=40	=40	=40	=40	=40	=40
2G	0r	1B	2d	1g	2r
2G	.	.	2e	.	2g
1F	.	1r	2.f	1c	2a
.	.	.	.	.	[2cc
.	.	.	4e	.	.
=41	=41	=41	=41	=41	=41
1G	2r	0r	1d	2.g	2cc]
.	2G	.	.	.	2b
.	.	.	.	4g	.
1r	2A	.	1c	1e	2a
.	[2c	.	.	.	2g
=42	=42	=42	=42	=42	=42
0r	2c]	1r	0r	2r	4a
.	.	.	.	.	4g
.	2B	.	.	2g	1g
.	1A	2r	.	2a	.
.	.	2A	.	2cc	2f#
=43	=43	=43	=43	=43	=43
0r	1G	2B	0r	2b	4g
.	.	.	.	.	4f
.	.	1d	.	2b	4d
.	.	.	.	.	4e
.	1F	.	.	2a	2.f
.	.	2c	.	2a	.
.	.	.	.	.	4e
=44	=44	=44	=44	=44	=44
2r	1G	1B	2r	1g	1d
2G	.	.	2B	.	.
2A	1r	1A	2c	1r	2r
[2c	.	.	[2e	.	2e
=45	=45	=45	=45	=45	=45
2c]	0r	1G	2e]	1r	2g
2B	.	.	2d	.	2g
1A	.	1A	1c	2r	4f
.	.	.	.	.	4e
.	.	.	.	2e	[2a
=46	=46	=46	=46	=46	=46
2E	0r	0r	1B	2e	4a]
.	.	.	.	.	4g
2G	.	.	.	2d	1g
1D	.	.	1A	2.d	.
.	.	.	.	.	2f#
.	.	.	.	4d	.
=47	=47	=47	=47	=47	=47
1G	2r	0r	1B	1d	2g
.	2B	.	.	.	2dd
2G	2B	.	1r	1g	2dd
2G	2B	.	.	.	2dd
=48	=48	=48	=48	=48	=48
0C	0c	1r	0r	1.g	0ee
.	.	2r	.	.	.
.	.	2c	.	2g	.
=49	=49	=49	=49	=49	=49
2.F	2A	2c	0r	1a	1cc
.	2A	2c	.	.	.
4E	.	.	.	.	.
1D	2A	[1d	.	1f#	2r
.	2A	.	.	.	2a
=50	=50	=50	=50	=50	=50
1G	1.B	1d]	2r	2r	4g
.	.	.	.	.	4a
.	.	.	2d	2g	4b
.	.	.	.	.	4cc
2G	.	2B	2d	2g	2dd
2G	2G	2B	2d	2g	2g
=51	=51	=51	=51	=51	=51
2.E	1G	2B	0e	1.g	2.gg
.	.	2B	.	.	.
4E	.	.	.	.	4gg
1C	1r	[1c	.	.	2ee
.	.	.	.	2g	2cc
=52	=52	=52	=52	=52	=52
1F	0r	2c]	2c	1a	2cc
.	.	2A	2c	.	2cc
2F	.	1A	2c	2r	[1ff
2F	.	.	2c	2a	.
=53	=53	=53	=53	=53	=53
1.D	0r	0r	1.d	2a	2ff]
.	.	.	.	2a	2dd
.	.	.	.	2f	[1dd
2G	.	.	2B	2g	.
=54	=54	=54	=54	=54	=54
1G	1r	0r	1B	1g	1dd]
[1C	[1c	.	1r	2r	[1ee
.	.	.	.	[2g	.
=55	=55	=55	=55	=55	=55
2C]	2c]	0r	0r	2g]	2ee]
2G	2B	.	.	2g	2dd
1C	1c	.	.	1g	1ee
=56	=56	=56	=56	=56	=56
1G	2B	1.d	0r	1g	4dd
.	.	.	.	.	4cc
.	2B	.	.	.	4b
.	.	.	.	.	4a
1r	2B	.	.	2r	2g
.	2A	2c	.	2e	2a
=57	=57	=57	=57	=57	=57
1r	1B	1d	1r	2d	2a
.	.	.	.	2d	2g#
2r	1A	2c	[1e	2e	1a
2A	.	2c	.	2c	.
=58	=58	=58	=58	=58	=58
2E	0r	2c	2e]	2r	1g
2G	.	2B	2d	2g	.
4C	.	1c	1e	[1g	2r
4D	.	.	.	.	.
4E	.	.	.	.	2g
4F	.	.	.	.	.
=59	=59	=59	=59	=59	=59
4G	0r	1B	2d	2g]	2.b
4F	.	.	.	.	.
4G	.	.	2d	2g	.
4A	.	.	.	.	4cc
2B	.	1r	2d	1g	2dd
[2c	.	.	2c	.	2ee
=60	=60	=60	=60	=60	=60
2c]	1r	0r	1d	1G	1dd
2B	.	.	.	.	.
2.c	2r	.	1c	[1g	2ee
.	[2c	.	.	.	[2ee
8B	.	.	.	.	.
8A	.	.	.	.	.
=61	=61	=61	=61	=61	=61
1G	2c]	0r	0r	2g]	2ee]
.	2B	.	.	2g	2dd
1r	2c	.	.	2g	2ee
.	2A	.	.	[2a	2cc
=62	=62	=62	=62	=62	=62
0r	1B	2r	0r	2a]	2.dd
.	.	1d	.	2g#	.
.	.	.	.	.	4ee
.	1A	.	.	2a	2ff
.	.	2c#	.	2a	2ee
=63	=63	=63	=63	=63	=63
2r	0r	2d	1r	2a	2ff
2G	.	2B	.	2b	2dd
1C	.	1c	2r	2g	2ee
.	.	.	[2e	[2g	2ee
=64	=64	=64	=64	=64	=64
2.G	0r	1B	2e]	4g]	1.gg
.	.	.	.	4a	.
.	.	.	2d	2b	.
4F	.	.	.	.	.
2E	.	1r	2e	2b	.
2A	.	.	2c	[2cc	2ff
=65	=65	=65	=65	=65	=65
1G	0r	0r	1d	4cc]	1gg
.	.	.	.	8b	.
.	.	.	.	8a	.
.	.	.	.	2b	.
2C	.	.	1c	2cc	2ee
2c	.	.	.	[2g	2ee
=66	=66	=66	=66	=66	=66
2B	0r	0r	0r	2g]	2dd
2.c	.	.	.	2g	2.ee
.	.	.	.	2.e	.
4B	.	.	.	.	4dd
2A	.	.	.	.	2cc
.	.	.	.	4f#	.
=67	=67	=67	=67	=67	=67
2G	0r	0r	0r	2g	2b
2F	.	.	.	1a	2a
1E	.	.	.	.	1b
.	.	.	.	2g#	.
=68	=68	=68	=68	=68	=68
1F	2r	0r	0r	2a	2r
.	2c	.	.	2f	2a
2F	2c	.	.	2f	2a
2F	2c	.	.	2f	2a
=69	=69	=69	=69	=69	=69
1C	1e	1r	0r	1g	1cc
[1G	2.d	2r	.	[1g	2.b
.	.	2d	.	.	.
.	4c	.	.	.	4cc
=70	=70	=70	=70	=70	=70
2G]	2B	2d	0r	2g]	1dd
2G	2B	2d	.	2g	.
1F	1A	1f	.	1a	2r
.	.	.	.	.	2cc
=71	=71	=71	=71	=71	=71
1C	0r	2.e	2r	1g	2cc
.	.	.	2e	.	2cc
.	.	4d	.	.	.
2C	.	2c	2e	2g	1ee
2C	.	2c	2e	2c	.
=72	=72	=72	=72	=72	=72
1G	0r	1B	1g	1d	2dd
.	.	.	.	.	1dd
2D	.	1r	2.f	2a	.
2F	.	.	.	2a	[2cc
.	.	.	4e	.	.
=73	=73	=73	=73	=73	=73
1G	1r	0r	2d	1g	2cc]
.	.	.	2d	.	2b
2C	1e	.	1c	2g	2cc
2C	.	.	.	2cc	[2gg
=74	=74	=74	=74	=74	=74
1D	1d	0r	0r	2b	2gg]
.	.	.	.	1a	2ff
1E	2c	.	.	.	2.ee
.	2B	.	.	2g#	.
.	.	.	.	.	4dd
=75	=75	=75	=75	=75	=75
1F	1A	1f	0r	1a	4cc
.	.	.	.	.	4b
.	.	.	.	.	2.cc
1C	1G	1e	.	2cc	.
.	.	.	.	.	4b
.	.	.	.	2c	4g
.	.	.	.	.	4a
=76	=76	=76	=76	=76	=76
2G	0r	2d	1r	2B	2b
2C	.	2c	.	2e	2cc
1G	.	1B	1g	[1d	[1dd
=77	=77	=77	=77	=77	=77
1D	0r	1A	1f	1d]	1dd]
2E	.	1r	2e	[1g	2cc
2G	.	.	2d	.	2b
=78	=78	=78	=78	=78	=78
1C	0r	0r	1c	1g]	1ee
1G	.	.	1B	1g	1dd
=79	=79	=79	=79	=79	=79
1r	1r	0r	0r	1r	1r
1G	1B	.	.	1d	1g
=80	=80	=80	=80	=80	=80
1F	1c	0r	0r	1f	1.a
1D	1d	.	.	1f	.
.	.	.	.	.	2b
=81	=81	=81	=81	=81	=81
1C	1e	1c	0r	1g	2cc
.	.	.	.	.	2ee
1G	1B	1d	.	1g	1dd
=82	=82	=82	=82	=82	=82
1C	1c	1e	1r	2g	1cc
.	.	.	.	2cc	.
1D	1r	1f	1d	[1a	2r
.	.	.	.	.	2ff
=83	=83	=83	=83	=83	=83
1A	0r	1c	1e	2a]	2ee
.	.	.	.	2a	2ee
2D	.	1d	1f	1a	1dd
2D	.	.	.	.	.
=84	=84	=84	=84	=84	=84
0G	1r	0r	1g	1d	1b
.	2r	.	1d	[1g	2b
.	2G	.	.	.	2b
=85	=85	=85	=85	=85	=85
2.E	2G	0r	1e	1g]	2b
.	1c	.	.	.	1ee
4F	.	.	.	.	.
1G	.	.	1r	2r	.
.	2B	.	.	2g	2dd
=86	=86	=86	=86	=86	=86
0r	1.c	2r	0r	2g	4ee
.	.	.	.	.	4dd
.	.	2A	.	1e	4cc
.	.	.	.	.	4b
.	.	2A	.	.	2a
.	2B	[2d	.	2d	2g#
=87	=87	=87	=87	=87	=87
1r	1A	2d]	1r	2e	1a
.	.	2c	.	2e	.
[1G	1r	[1d	2r	1g	[1b
.	.	.	2B	.	.
=88	=88	=88	=88	=88	=88
2G]	0r	2d]	2B	2r	2b]
2C	.	2c	1e	1g	2cc
2E	.	1B	.	.	1g
2G	.	.	2d	2b	.
=89	=89	=89	=89	=89	=89
2C	0r	0r	1.e	2cc	2g
2C	.	.	.	2g	1cc
1G	.	.	.	2.g	.
.	.	.	2d	.	2b
.	.	.	.	4g	.
=90	=90	=90	=90	=90	=90
2r	1A	0r	1c	2e	2cc
2F	.	.	.	2c	2a
4D	1d	.	1r	1f	[1a
4E	.	.	.	.	.
4F	.	.	.	.	.
4G	.	.	.	.	.
=91	=91	=91	=91	=91	=91
1A	1c	1r	0r	1e	1a]
1G	1d	1B	.	[1g	1b
=92	=92	=92	=92	=92	=92
1C	1c	1e	0r	2g]	2cc
.	.	.	.	2g	4g
.	.	.	.	.	4a
1G	1B	1d	.	1g	4b
.	.	.	.	.	4cc
.	.	.	.	.	[2dd
=93	=93	=93	=93	=93	=93
1C	0r	1e	1c	2r	4dd]
.	.	.	.	.	4cc
.	.	.	.	2g	1cc
1r	.	1d	1f	2a	.
.	.	.	.	2f	2b
=94	=94	=94	=94	=94	=94
1C	2r	1c	1e	4g	1cc
.	.	.	.	4f	.
.	2G	.	.	4e	.
.	.	.	.	4d	.
2F	2A	1r	1f	4c	2r
.	.	.	.	4A	.
2D	2A	.	.	[2a	2dd
=95	=95	=95	=95	=95	=95
2A	2.c	1r	1e	2a]	2ee
2A	.	.	.	2a	2ee
.	4B	.	.	.	.
1D	1A	2r	[1d	2a	4ff
.	.	.	.	.	4ee
.	.	2A	.	2f	4dd
.	.	.	.	.	4cc
=96	=96	=96	=96	=96	=96
2r	1G	2B	0d]	1g	1b
2G	.	2B	.	.	.
2D	2F#	2.d	.	2a	1a
2F#	2A	.	.	[2a	.
.	.	4c	.	.	.
=97	=97	=97	=97	=97	=97
1G	2B	1B	[0d	2a]	0dd
.	2.d	.	.	1g	.
1D	.	1A	.	.	.
.	4c	.	.	.	.
.	2A	.	.	2f#	.
=98	=98	=98	=98	=98	=98
0G	0B	0G	0d]	0g	0b
*	*	*	*	*-	*-
!! Crucifixus
*Ibass	*Itenor	*Icalto	*Icalto
!Bassus	!Tenor	!Altus 2	!Altus 1
*clefF4	*clefGv2	*clefG2	*clefG2
*k[]	*k[]	*k[]	*k[]
*G:mix	*G:mix	*G:mix	*G:mix
*M4/2	*M4/2	*M4/2	*M4/2
=99	=99	=99	=99
0C	0c	0e	0g
=100	=100	=100	=100
1C	1c	1e	1g
1G	1B	2.d	1g
.	.	4e	.
=101	=101	=101	=101
2F	0c	1f	2a
4F	.	.	1a
4G	.	.	.
4A	.	2e	.
4B	.	.	.
[2c	.	[2e	2g
=102	=102	=102	=102
2c]	0r	2e]	2e
2B	.	2d	2.g
2G	.	2B	.
.	.	.	4f
2A	.	2c	[2e
=103	=103	=103	=103
1F	2r	1A	2e]
.	1a	.	2d
1E	.	2B	2.e
.	2g	[2c	.
.	.	.	4f
=104	=104	=104	=104
2r	2e	4c]	2g
.	.	4c	.
2D	2f	2A	2a
4D	1d	1a	1f
4E	.	.	.
4F	.	.	.
4G	.	.	.
=105	=105	=105	=105
1A	1c	1a	2e
.	.	.	2f
2A	1c	1a	2.e
2A	.	.	.
.	.	.	4c
=106	=106	=106	=106
2.G	2.B	1r	2d
.	.	.	2e
4E	4G	.	.
2F	2A	2r	2c
2D	2F	2a	[2d
=107	=107	=107	=107
1E	1G	2.g	4d]
.	.	.	4c
.	.	.	1c
.	.	4e	.
1D	2A	2f	.
.	4G	2d	2B
.	4F	.	.
=108	=108	=108	=108
1C	2G	1e	1c
.	1c	.	.
1r	.	1d	1r
.	2B	.	.
=109	=109	=109	=109
2r	2.A	1c	2r
1c	.	.	1e
.	4B	.	.
.	2c	1r	.
2B	2d	.	2d
=110	=110	=110	=110
2.A	1e	2r	2.c
.	.	1a	.
4G	.	.	4B
2F	1r	.	2A
2E	.	2g	2B
=111	=111	=111	=111
1D	2r	2.f	1d
.	1f	.	.
.	.	4e	.
2D	.	2d	2r
2E	2e	2c	[2g
=112	=112	=112	=112
2G	2.d	2B	2g]
2D	.	2A	2f
.	4c	.	.
1E	2B	2G	1e
.	2A	2c	.
=113	=113	=113	=113
1E	4G	4B	1e
.	2A	4A	.
.	.	2B	.
.	4G#	.	.
1A	1A	1c	2e
.	.	.	2e
=114	=114	=114	=114
0r	0r	2r	2f
.	.	2e	2g
.	.	2f	2a
.	.	2g	2b
=115	=115	=115	=115
1r	0r	2a	2cc
.	.	2b	2g
2r	.	2.cc	2a
2E	.	.	2g
.	.	4b	.
=116	=116	=116	=116
2F	0r	2a	2f
2G	.	4g	1e
.	.	8f	.
.	.	8e	.
2A	.	1f	.
2B	.	.	2d
=117	=117	=117	=117
2.c	2r	0e	1e
.	2c	.	.
4B	.	.	.
2A	2c	.	1r
2G#	2B	.	.
=118	=118	=118	=118
1A	2c	2r	2r
.	4A	2a	2cc
.	4B	.	.
1r	4c	2a	2cc
.	4d	.	.
.	2e	2g#	2b
=119	=119	=119	=119
1F	2A	2a	4cc
.	.	.	4b
.	2c	4f	4a
.	.	4g	4g
2F	1c	4a	2f
.	.	4b	.
2E	.	[2cc	2g
=120	=120	=120	=120
2F	2A	2cc]	[0a
4D	1d	1f	.
4E	.	.	.
4F	.	.	.
4G	.	.	.
2A	2c#	2e	.
=121	=121	=121	=121
1D	2d	1f	0a]
.	2d	.	.
1A	2e	2c	.
.	2f#	2c	.
=122	=122	=122	=122
2B	2g	2d	2r
2c	1a	2A	2e
2d	.	1r	2f
2e	[2g	.	2g
=123	=123	=123	=123
1d	4g]	2r	2a
.	4f	.	.
.	2f	2d	2b
2c	2g	2e	2.cc
2A	2c	2f	.
.	.	.	4a
=124	=124	=124	=124
2G	0d	2g	2b-
2F#	.	2a	2a
1G	.	1b-	1g
=125	=125	=125	=125
2r	1d	2a	2f
2d	.	2f	2a
2.c	1r	2.e	2a
.	.	.	2g
4B	.	4d	.
=126	=126	=126	=126
2A	0r	2c	2f
2G	.	2B	2e
2.A	.	2.c	4f
.	.	.	8e
.	.	.	8d
.	.	.	2e
4G	.	4B	.
=127	=127	=127	=127
2F	0r	2A	0d
2.G	.	4B	.
.	.	4A	.
.	.	4B	.
4F	.	4c	.
2D	.	[2d	.
=128	=128	=128	=128
1E	1g	2d]	1G
.	.	2c#	.
1D	2.f	2d	1A
.	.	2a	.
.	4e	.	.
=129	=129	=129	=129
0r	2d	2f	1a
.	2c#	2e	.
.	2.d	2.f	2a
.	.	.	2a
.	4c	4e	.
=130	=130	=130	=130
0r	2B	2d	2.g
.	2.c	4e	.
.	.	4f	4f
.	.	2.g	4e
.	4B	.	4d
.	2G	.	[2d
.	.	4f	.
=131	=131	=131	=131
1r	1A	1e	2d]
.	.	.	2c#
2r	1f	[1a	1d
2d	.	.	.
=132	=132	=132	=132
2.c	2.e	1a]	4A
.	.	.	4B
.	.	.	4c
4B	4d	.	4d
2A	2c	2r	2e
2G	2d	2b-	2g
=133	=133	=133	=133
1D	1d	2.a	2.f
.	.	4g	4e
1r	1a	2f	2d
.	.	2e	2c#
=134	=134	=134	=134
1D	2.a	2.f	4d
.	.	.	4e
.	.	.	4f
.	4g	4e	4g
2D	2f	2d	[1a
2A	2e	2c#	.
=135	=135	=135	=135
1D	2f	2d	1a]
.	2.d	2f	.
2.E	.	1e	[1g
.	4c	.	.
.	[2c	.	.
4F	.	.	.
=136	=136	=136	=136
0G	2c]	0d	0g]
.	4B	.	.
.	4A	.	.
.	1B	.	.
=137	=137	=137	=137
0C	0c	0e	0g
!! Et iterum
*Ibarit	*Icalto	*Icalto	*Icant
!Baritone	!Altus 2	!Altus 1	!Cantus
*clefF4	*clefG2	*clefG2	*clefG2
*k[]	*k[]	*k[]	*k[]
*G:mix	*G:mix	*G:mix	*G:mix
*M4/2	*M4/2	*M4/2	*M4/2
=138	=138	=138	=138
0c	0e	0g	0cc
=139	=139	=139	=139
1.A	1.e	1.a	1.cc
2A	2f#	2a	2cc
=140	=140	=140	=140
2G	2g	2d	2b
2F	2a	2f	2cc
2c	2g	2e	2cc
2d	2f	2f	2b
=141	=141	=141	=141
0c	2.e	2g	2cc
.	.	2g	2cc
.	4f	.	.
.	[1g	2.cc	2.ee
.	.	4cc	4ee
=142	=142	=142	=142
1r	1g]	2b	2dd
.	.	2b	2dd
2r	1r	2g	2b
2c	.	[2a	[2cc
=143	=143	=143	=143
2.e	1r	4a]	4cc]
.	.	4g	4b
.	.	1g	4b
4e	.	.	8a
.	.	.	8g
2d	2r	.	1a
2d	2d	2f#	.
=144	=144	=144	=144
2B	2d	0g	1g
2.c	4e	.	.
.	4d	.	.
.	4e	.	1r
4B	4f	.	.
4B	[2g	.	.
8A	.	.	.
8G	.	.	.
=145	=145	=145	=145
1A	4g]	0r	1cc
.	4f#	.	.
.	2f#	.	.
1G	2g	.	1b
.	2g	.	.
=146	=146	=146	=146
1A	2f	1cc	1a
.	4e	.	.
.	4d	.	.
1E	1e	1b	1g
=147	=147	=147	=147
1F	1c	1a	1f
1C	2c	1g	1e
.	2e	.	.
=148	=148	=148	=148
1D	2.d	1f	2r
.	.	.	1a
.	4c	.	.
1E	1B	1e	.
.	.	.	2g
=149	=149	=149	=149
0r	4A	2r	1cc
.	4B	.	.
.	4c	1a	.
.	4d	.	.
.	1e	.	1b
.	.	2g	.
=150	=150	=150	=150
0r	2r	2cc	1a
.	1d	4f	.
.	.	4g	.
.	.	4a	2f
.	.	4b	.
.	2c	[2cc	2g
=151	=151	=151	=151
0r	1f	2cc]	4a
.	.	.	4b
.	.	2a	4cc
.	.	.	4dd
.	2e	2cc	4ee
.	.	.	4ff
.	2e	2b	[2gg
=152	=152	=152	=152
1r	2c	1a	2gg]
.	2d	.	2ff#
2r	4e	1g	2gg
.	4f	.	.
2c	4g	.	2ee
.	4e	.	.
=153	=153	=153	=153
2A	1f	0r	2cc
2B	.	.	2dd
4c	2e	.	4ee
4B	.	.	4dd
4A	2e	.	4cc
4G	.	.	4b
=154	=154	=154	=154
2F	2f	2r	2a
2G	2d	2g	2b
1A	2.c	2e	1cc
.	.	2f#	.
.	4d	.	.
=155	=155	=155	=155
1G	4e	4g	1b
.	4f	4f	.
.	1g	4e	.
.	.	4d	.
1r	.	2c	1a
.	2f#	2d	.
=156	=156	=156	=156
2r	1g	1.e	0g
1c	.	.	.
.	2r	.	.
2B	[2g	2d	.
=157	=157	=157	=157
2.A	2g]	2c	0r
.	2f	1cc	.
4A	.	.	.
1G	2e	.	.
.	2d	2b	.
=158	=158	=158	=158
1A	2f	2.a	2r
.	4e	.	1cc
.	4d	4a	.
1E	1e	1g	.
.	.	.	2b
=159	=159	=159	=159
2.F	2r	1f	2.a
.	1c	.	.
4F	.	.	4a
1G	.	2d	2g
.	2B	[2g	2dd
=160	=160	=160	=160
0r	2c	4g]	2ee
.	.	4e	.
.	2A	2.a	2.ff
.	1c	.	.
.	.	4g	4ee
.	.	4g	[2ee
.	.	8f	.
.	.	8e	.
=161	=161	=161	=161
2r	1d	2f	2ee]
1d	.	2f	2dd
.	1A	2e	1ee
2c	.	[2a	.
=162	=162	=162	=162
2A	0r	2a]	0r
2B	.	2g	.
4c	.	4e	.
4d	.	4f	.
4e	.	4g	.
4c	.	4e	.
=163	=163	=163	=163
2d	0r	2f	1r
1c	.	2e	.
.	.	1d	1dd
2B	.	.	.
=164	=164	=164	=164
2c	2r	2c	1ee
2c	2e	2g	.
1F	1f	1a	1cc
=165	=165	=165	=165
2G	2d	2g	1b
2G	2d	2g	.
2.A	2.c	2.e	2.cc
4A	4c	4f#	4cc
=166	=166	=166	=166
2G	2d	2g	2b
1F	1f	1cc	1a
2G	2d	2b	2g
=167	=167	=167	=167
2.A	2f	1a	0cc
.	4e	.	.
4B	4d	.	.
1c	1e	2g	.
.	.	[2g	.
=168	=168	=168	=168
1G	0d	2g]	2b
.	.	2d	1dd
1r	.	1f	.
.	.	.	2a
=169	=169	=169	=169
0r	0r	2e	1cc
.	.	2f	.
.	.	2g	2b
.	.	2e	2cc
=170	=170	=170	=170
0r	0r	2.d	2dd
.	.	.	2b
.	.	4e	.
.	.	4f	4a
.	.	4g	4b
.	.	4a	4cc
.	.	4b	4dd
=171	=171	=171	=171
2r	2.c	2cc	2ee
1c	.	1cc	1ee
.	4d	.	.
.	4e	.	.
.	4f	.	.
2G	2g	2b	2dd
=172	=172	=172	=172
1A	2e	1a	1cc
.	1f	.	.
1c	.	1g	1cc
.	2e	.	.
=173	=173	=173	=173
1F	1f	1a	1cc
1G	1d	1g	1b
=174	=174	=174	=174
2r	2.c	1g	1ee
2c	.	.	.
.	4d	.	.
2c	4e	2cc	2ee
.	4f	.	.
2G	2g	2b	2dd
=175	=175	=175	=175
1A	2e	1a	1cc
.	2f	.	.
1c	2f	1g	1cc
.	2e	.	.
=176	=176	=176	=176
1F	1f	1a	1cc
1G	1d	2g	1b
.	.	[2g	.
=177	=177	=177	=177
2.c	2.e	4g]	0r
.	.	4f	.
.	.	2g	.
4B	4d	.	.
2c	2e	2a	.
2d	2f	2b	.
=178	=178	=178	=178
2e	2g	4cc	2.cc
.	.	4b	.
2.f	2.a	4a	.
.	.	4g	4b
.	.	4f	2cc
4e	4g	4g	.
2d	2f	[2a	2dd
=179	=179	=179	=179
2c#	2e	4a]	2ee
.	.	4g	.
1d	2d	4f	1ff
.	.	4e	.
.	2.a	2d	.
2c#	.	2A	[2ee
.	4g	.	.
=180	=180	=180	=180
1d	1f	0a	2ee]
.	.	.	2.dd
1A	1e	.	.
.	.	.	4cc#
.	.	.	2cc#
=181	=181	=181	=181
1D	1d	2f	1dd
.	.	2.d	.
2.G	2.B	.	1r
.	.	4c	.
.	.	2d	.
4F	4A	.	.
=182	=182	=182	=182
2G	2B	2e	1r
2A	2c	2f	.
2B	2d	4g	2.g
.	.	4f	.
[2c	[2e	4e	.
.	.	4d	4f
=183	=183	=183	=183
4c]	4e]	4c	2g
4B	4d	4d	.
2A	2c	4e	2a
.	.	4f#	.
2G	2d	2g	2b
[2F	[2f	[2a	[2cc
=184	=184	=184	=184
2F]	4f]	2a]	2cc]
.	4e	.	.
2G	4d	2g	2b
.	4c	.	.
1D	1d	1f#	1a
=185	=185	=185	=185
0G	0d	0g	0b
*-	*-	*-	*-
!! Et unam sanctam
**kern	**kern	**kern	**kern	**kern	**kern
*Ibass	*Ibarit	*Itenor	*Itenor	*Icalto	*Icant
!Bassus	!Baritone	!Tenor 2	!Tenor 1	!Altus	!Cantus
*clefF4	*clefF4	*clefGv2	*clefGv2	*clefG2	*clefG2
*k[]	*k[]	*k[]	*k[]	*k[]	*k[]
*G:mix	*G:mix	*G:mix	*G:mix	*G:mix	*G:mix
*M4/2	*M4/2	*M4/2	*M4/2	*M4/2	*M4/2
=186	=186	=186	=186	=186	=186
1G	2r	0r	0r	1d	1b
.	2G	.	.	.	.
2G	2B	.	.	2g	2dd
2G	2B	.	.	2g	2dd
=187	=187	=187	=187	=187	=187
1C	1c	0r	0r	1g	1ee
2G	2B	.	.	[1g	2dd
2G	2B	.	.	.	2dd
=188	=188	=188	=188	=188	=188
2E	2c	2r	0r	2g]	2ee
2D	2d	2A	.	2f	2ff
2C	1e	2c	.	2e	2gg
[2c	.	2c	.	2c	2ee
=189	=189	=189	=189	=189	=189
4c]	0r	1d	0r	2G	2dd
8B	.	.	.	.	.
8A	.	.	.	.	.
2B	.	.	.	2g	2dd
2c	.	2c	.	2g	2ee
2A	.	2c	.	2f#	4dd
.	.	.	.	.	4cc
=190	=190	=190	=190	=190	=190
2.G	0r	2d	2r	2g	1b
.	.	2e	2B	2g	.
8F	.	.	.	.	.
8E	.	.	.	.	.
1D	.	1f	2d	2a	2r
.	.	.	2d	2a	2dd
=191	=191	=191	=191	=191	=191
2r	2r	0r	1e	2.g	2b
2C	2c	.	.	.	2cc
.	.	.	.	4g	.
2G	2c	.	2d	1g	2dd
2G	2B	.	2d	.	2g
=192	=192	=192	=192	=192	=192
2C	2c	0r	2e	1r	2g
2D	2A	.	2f	.	2dd
[1E	2G	.	1g	2r	4cc
.	.	.	.	.	4b
.	2B	.	.	2g	[2ee
=193	=193	=193	=193	=193	=193
2E]	2c	2r	0r	2e	2ee]
2F	2d	2d	.	2a	4dd
.	.	.	.	.	4cc
2G	1e	2d	.	2g	2b
2A	.	2c	.	2e	2a
=194	=194	=194	=194	=194	=194
1D	1d	2d	0r	2.f	2a
.	.	2B	.	.	2dd
.	.	.	.	4g	.
1F	1r	2A	.	2a	2cc
.	.	2c	.	2a	2cc
=195	=195	=195	=195	=195	=195
2D	0r	2d	2r	1.a	2ff
2C	.	2e	2e	.	2ee
2D	.	1f	2e	.	2a
2D	.	.	2d	2a	2dd
=196	=196	=196	=196	=196	=196
1A	0r	1e	2e	1a	4cc
.	.	.	.	.	4dd
.	.	.	2c	.	4ee
.	.	.	.	.	4ff
1G	.	1r	2B	2d	2.gg
.	.	.	2d	[2g	.
.	.	.	.	.	4ff
=197	=197	=197	=197	=197	=197
2c	0r	0r	2e	4g]	2ee
.	.	.	.	4a	.
2d	.	.	2f	4b	2dd
.	.	.	.	8a	.
.	.	.	.	8b	.
1c	.	.	1g	2cc	4ee
.	.	.	.	.	2ff
.	.	.	.	2cc	.
.	.	.	.	.	4ee
=198	=198	=198	=198	=198	=198
2r	2r	0r	1f	2a	1ff
2F	2A	.	.	2a	.
2G	2B	.	1r	2g	1r
2A	2c	.	.	2e	.
=199	=199	=199	=199	=199	=199
2D	2d	0r	0r	1f	1a
2F	2d	.	.	.	.
2G	2d	.	.	1e	2b
[2A	2c	.	.	.	2cc
=200	=200	=200	=200	=200	=200
2A]	1B	2r	0r	2f	2dd
2G	.	2B	.	2g	2dd
1F	1A	2c	.	1a	2ff
.	.	2d	.	.	2ff
=201	=201	=201	=201	=201	=201
1C	1c	2e	0r	2g	4ee
.	.	.	.	.	4dd
.	.	2e	.	2g	4cc
.	.	.	.	.	4b
1r	2c	2e	.	2a	2a
.	2B	2d	.	2b	[2g
=202	=202	=202	=202	=202	=202
0r	1A	1c	2r	2cc	4g]
.	.	.	.	.	8f#
.	.	.	.	.	8e
.	.	.	2c	2a	2f#
.	1G	1B	2d	2b	1g
.	.	.	2e	2b	.
=203	=203	=203	=203	=203	=203
0r	0r	1d	2f	4a	1a
.	.	.	.	4g	.
.	.	.	2f	4f	.
.	.	.	.	4e	.
.	.	2d	2f	2d	2r
.	.	2c	2e	2e	[2a
=204	=204	=204	=204	=204	=204
1r	1r	1B	1d	2f	2a]
.	.	.	.	4e	2g#
.	.	.	.	4d	.
2r	2r	1A	1c	1e	2.a
[2A	[2c	.	.	.	.
.	.	.	.	.	4b
=205	=205	=205	=205	=205	=205
2A]	2c]	0r	1e	1r	4cc
.	.	.	.	.	4dd
2G	2B	.	.	.	2.ee
2A	2c	.	2e	2r	.
.	.	.	.	.	4ff
2B	2d	.	2d	[2g	[2gg
=206	=206	=206	=206	=206	=206
2c	1e	1r	1c	2g]	2gg]
2C	.	.	.	2g	2cc
2.G	1d	2r	1B	1g	1dd
.	.	[2d	.	.	.
4F	.	.	.	.	.
=207	=207	=207	=207	=207	=207
1E	1e	2d]	0r	1e	1g
.	.	2c#	.	.	.
2D	2f	2d	.	1a	1r
2C#	2e	2e	.	.	.
=208	=208	=208	=208	=208	=208
4D	1d	1f	1r	[0a	0r
4E	.	.	.	.	.
4F	.	.	.	.	.
4G	.	.	.	.	.
1A	1c	1e	2r	.	.
.	.	.	[2e	.	.
=209	=209	=209	=209	=209	=209
1D	0r	1f	2e]	1a]	2r
.	.	.	2d	.	2dd
1r	.	2g	2e	2r	2b
.	.	2f	2f	[2a	[2dd
=210	=210	=210	=210	=210	=210
1r	0r	1e	1g	2a]	2dd]
.	.	.	.	2g	2cc#
2r	.	1d	1f	2a	1dd
2d	.	.	.	2b	.
=211	=211	=211	=211	=211	=211
2.c	0r	0r	1g	2cc	2ee
.	.	.	.	2cc	2gg
4B	.	.	.	.	.
4A	.	.	2a	2cc	2ff
4B	.	.	.	.	.
2c	.	.	2g	2cc	[2ee
=212	=212	=212	=212	=212	=212
1d	2r	0r	1f	1a	4ee]
.	.	.	.	.	8dd
.	.	.	.	.	8cc
.	1d	.	.	.	2dd
1A	.	.	1e	1a	1ee
.	2c	.	.	.	.
=213	=213	=213	=213	=213	=213
1D	1d	0r	0r	1f	2r
.	.	.	.	.	1dd
1F	1A	.	.	1a	.
.	.	.	.	.	2cc
=214	=214	=214	=214	=214	=214
2.C	2.c	2r	0r	[0g	2.ee
.	.	1e	.	.	.
4D	4c	.	.	.	4ff
4E	2c	.	.	.	2.gg
4F	.	.	.	.	.
2G	2B	2d	.	.	.
.	.	.	.	.	4ff
=215	=215	=215	=215	=215	=215
1C	1c	1e	0r	1g]	4ee
.	.	.	.	.	4dd
.	.	.	.	.	2cc
1r	1G	1B	.	1g	[1dd
=216	=216	=216	=216	=216	=216
2.D	2A	2.d	2r	2f	1dd]
.	2B-	.	1f	2d	.
4D	.	4d	.	.	.
2D	1A	2d	.	[1a	2r
2A	.	2c	2e	.	2ee
=217	=217	=217	=217	=217	=217
2.D	1A	1d	1f	2a]	2dd
.	.	.	.	2a	1ff
4E	.	.	.	.	.
4F	1r	1A	1c	1a	.
4G	.	.	.	.	.
2A	.	.	.	.	2ee
=218	=218	=218	=218	=218	=218
1E	0r	2B	2.e	[0g	2gg
.	.	2c	.	.	4g
.	.	.	4e	.	4a
2.G	.	1B	2e	.	4b
.	.	.	.	.	4cc
.	.	.	2d	.	2dd
4F	.	.	.	.	.
=219	=219	=219	=219	=219	=219
1.E	0r	1B	1e	1g]	1.gg
.	.	1r	1B	[1g	.
2D	.	.	.	.	2ff
=220	=220	=220	=220	=220	=220
2C	1r	0r	2c	2g]	2ee
2BB	.	.	2d	2g	2dd
1C	1G	.	1c	4e	1ee
.	.	.	.	4c	.
.	.	.	.	[2g	.
=221	=221	=221	=221	=221	=221
1r	1A	0r	1c	4g]	2r
.	.	.	.	8f#	.
.	.	.	.	8e	.
.	.	.	.	2f#	2cc
1C	2G	.	1r	2g	[1ee
.	2c	.	.	2e	.
=222	=222	=222	=222	=222	=222
1E	2B	1r	0r	1g	1ee]
.	2c	.	.	.	.
1D	2.d	1A	.	1f#	2a
.	.	.	.	.	2dd
.	4d	.	.	.	.
=223	=223	=223	=223	=223	=223
1G	1d	1B	0r	2r	2.b
.	.	.	.	2g	.
.	.	.	.	.	4cc
2F#	1r	2A	.	2a	2dd
2G	.	2d	.	2b	2b
=224	=224	=224	=224	=224	=224
2A	0r	2c	1r	2cc	1a
2F	.	2d	.	2a	.
1E	.	2.e	1B	1g	2r
.	.	.	.	.	2b
.	.	4e	.	.	.
=225	=225	=225	=225	=225	=225
1A	0r	1e	1c	2r	4a
.	.	.	.	.	4b
.	.	.	.	1a	4cc
.	.	.	.	.	4dd
1E	.	1r	2B	.	1ee
.	.	.	2e	2g	.
=226	=226	=226	=226	=226	=226
2F	0r	0r	2d	2f	0a
2C	.	.	2e	2e	.
2D	.	.	2.f	2d	.
2D	.	.	.	2d	.
.	.	.	4f	.	.
=227	=227	=227	=227	=227	=227
1F	1A	0r	1f	2.c	2r
.	.	.	.	.	2a
.	.	.	.	4d	.
1E	2.B	.	1r	2e	2a
.	.	.	.	2e	2g
.	4c	.	.	.	.
=228	=228	=228	=228	=228	=228
2D	2d	0r	0r	1A	2f
2C	1e	.	.	.	2e
1F	.	.	.	2r	1a
.	2d	.	.	[2a	.
=229	=229	=229	=229	=229	=229
1E	2e	1B	0r	2a]	2r
.	2.e	.	.	2g#	2ee
2.A	.	2.c	.	2a	1ee
.	4d	.	.	.	.
.	[2c	.	.	2a	.
4B	.	4d	.	.	.
=230	=230	=230	=230	=230	=230
2c	4c]	2e	0r	2g	2cc
.	4B	.	.	.	.
2F	2A	1f	.	2f	2cc
1C	1G	.	.	2g	2cc
.	.	2e	.	2cc	2g
=231	=231	=231	=231	=231	=231
2.F	2F	2f	1c	4cc	2a
.	.	.	.	4b	.
.	2.A	2.f	.	4a	2a
4E	.	.	.	4g	.
[1D	.	.	2.d	2.f	1a
.	4G	4e	.	.	.
.	4F	[2d	.	.	.
.	4E	.	4e	4g	.
=232	=232	=232	=232	=232	=232
0D]	1D	4d]	2f#	2a	0dd
.	.	4c	.	.	.
.	.	2B	1g	2g	.
.	1d	1A	.	1a	.
.	.	.	2f#	.	.
=233	=233	=233	=233	=233	=233
0G	0B	0G	0g	0b	0dd
==	==	==	==	==	==
*-	*-	*-	*-	*-	*-
!!!CDT: 1525/^1526/-1594/2/2
!!!OCY: Italia
!!!AGN: Mass (Canonic)
!!!AST: renaissance, vocal
!!!ASW: Motet (unidentified)
!!!PWK: Masses, Book 8
!!!RNB: Cadence finals: C
!!!YOR: Le Opere Complete, v. 24, p. 157
!!!YOO: Rome, Italy: Fratelli Scalera
!!!END: 1992//
!!!EED: John Miller
!!!YEC: Copyright 2000, John Miller
!!!YEN: United States of America
!!!YEM: Rights to all derivative electronic formats reserved.
!!!YEM: Refer to licensing agreement for further details.
!!!YEM: This file must be accompanied by the licensing agreement.
!!!YEM: A copy of the licensing agreement may be found at http://www.music-cog.ohio-state.edu/HumdrumDatabases/Palestrina/license.txt
!!!EMD: converted to Humdrum by Bret Aarden
